!!!SOCIAL_FUNCTION:	war songs
!!!PDT:	1929
!!!OTL: No_139_I_Am_Dancing.krn
!!!REG: Southwest
!!!LANG: Non-Tone
!!!LING_GROUP: Uto-Aztecan
**kern
*staff1
=1-
*clefF4
*k[b-e-a-d-g-]
*M2/4
2d-\
=2
4d-\
4d-\
=3
4d-\
16B-\LK
8.A-\J
=4
4A-\
8F\
8r
=5
2A-\
=6
4A-\
4r
=7
4.d-\
8B-\
=8
4d-\
4B-\
=9
4A-\
4F\
=10
4E-\
4E-\
=11
4E-\
4D-\
=12
4BB-/
4BB-/
=13
[2BB-/
=14
4BB-/]
4r
=15
4.E-\
8BB-/
=16
4D-\
8D-/L
8BB-/J
=17
4D-\
4D-\
=18
4BB-/
4D-\
=19
8D-/L
8BB-/J
4D-\
=20
8D-\L
8D-\J
4D-\
=21
2D-\
==
*-
